X:6
T:Breuddwyd y Wrach [the witch's dream]
R:slip jig
Z:Lesl
M:9/8
L:1/8
K:D
|:dfd f2g afd|dfd f2d ecA|dfd f2g afd|faf gec d3:|
|:AcA c2d ecA|fef c2d ecA|AcA c2d ecA|fef gec d3:||
|:dfd f2g afd|dfd f2d ecA|dfd f2g afd|faf gec d3:|
|:AcA c2d ecA|fef c2d ecA|AcA c2d ecA|fef gec d3:||
